T: High Part Of The Road, The
M: 6/8
L: 1/8
K: Gmaj
~B3 cBc|ded cAG|F2D DED|DGG FGA|
~B3 cBc|dcA deg|fed cAF|1 AGF GAc:|2 AGF G2 f||
~g3 def|g/g/ga bag|~f3 d^cd|afd cBA|
~g3 def|g/g/a bag|fed cAF|1 AGF G2 f:|2 AGF GAc||
~g3 def|gac bag|~f3 d^cd|afd cBA|
~g3 def|gac bag|fed cAF|1 AGF G2 f:|2 AGF GAc||
